svg/fluentui-system-icons/ic_fluent_bluetooth_28_regular.svg

<svg width="28" height="28" viewBox="0 0 28 28" fill="none" xmlns="http://www.w3.org/2000/svg">
<path d="M13.463 2.05709C13.7433 1.941 14.0658 2.00517 14.2803 2.21967L20.2803 8.21967C20.4271 8.36645 20.5065 8.56749 20.4996 8.77496C20.4927 8.98242 20.4001 9.17774 20.2439 9.31443L14.889 14L20.2439 18.6856C20.4001 18.8223 20.4927 19.0176 20.4996 19.225C20.5065 19.4325 20.4271 19.6335 20.2803 19.7803L14.2803 25.7803C14.0658 25.9948 13.7433 26.059 13.463 25.9429C13.1827 25.8268 13 25.5533 13 25.25V15.6528L8.24389 19.8144C7.93216 20.0872 7.45834 20.0556 7.18558 19.7439C6.91282 19.4321 6.9444 18.9583 7.25613 18.6856L12.6111 14L7.25613 9.31443C6.9444 9.04167 6.91282 8.56785 7.18558 8.25612C7.45834 7.94439 7.93216 7.9128 8.24389 8.18557L13 12.3472V2.75C13 2.44665 13.1827 2.17318 13.463 2.05709ZM14.5 15.6528V23.4393L18.6528 19.2865L14.5 15.6528ZM14.5 12.3472L18.6528 8.71347L14.5 4.56066V12.3472Z" fill="#212121"/>
</svg>

<svg xmlns="http://www.w3.org/2000/svg" width="28" height="28"><path d="M13.463 2.057a.75.75 0 0 1 .817.163l6 6a.75.75 0 0 1-.036 1.094L14.889 14l5.355 4.686a.75.75 0 0 1 .036 1.094l-6 6a.75.75 0 0 1-1.28-.53v-9.597l-4.756 4.161a.75.75 0 1 1-.988-1.128L12.611 14 7.256 9.314a.75.75 0 1 1 .988-1.128L13 12.347V2.75a.75.75 0 0 1 .463-.693ZM14.5 15.653v7.786l4.153-4.152-4.153-3.634Zm0-3.306 4.153-3.634L14.5 4.561v7.786Z"/></svg>
